X:1
T:O Spiegel der Dreyfaltigkeit
T:Georg Vogler
T:Source : Catechismus---Würzburg---J.Volmari---1652. Editor : André Vierendeels (25/09/17).
T:Notes : Original clefs : C1, F4 ( notated as F3 in original print) Original note values have been halved Text and music slightly adapted in m9 and 10 Text Middle German
T:O Spiegel der Dreyfaltigkeit
T:©
T:©
C:Georg Vogler
Z:©
%%score [ 1 2 ]
L:1/8
Q:1/4=111
M:2/2
K:F
V:1 treble nm="Soprano" snm="S"
V:2 bass nm="Bass" snm="B"
V:1
 z2 c2 c2 c2 | c2 B2 A2 A2 | G4 F2 F2 | F2 E2 D2 D2 | C4 C4 |"^3)" C2 F2 E2 F2 | G2 G2 F4 | %7
w: O Spie- gel|der Drey- fal- tig-|keit, er- leucht|uns al- le in|der Zeit:|E- ya lie- be|Chri- sten- heit,|
w: Ma- ri- a|säugt ihr Kind- lein|zarth, von be-|ster Arth kein Milch|sie spart:|mit höch- stem Gunst,|und gro- stem|
 C2 F2 E2 F2 | G4 G2 F2 | F2 F2 c2 c2 | c2 F2 c2 c2 | c4 F4 | F3 G F2 E2 | D2 D2 C2 F2 | %14
w: mit Lob- ge- sän-|gern sey be-|reit. mit Frö- lig-|keit, mit In- nig-|keit dem|Kin- de- lein in|E- wig- keit last|
w: Lust, fällt an ihr|jung- fraw- mi-|che Brust Je- sus|ihr Sohn: O lie-|be schon,|Ma- ri- ae Atrm|seyn Gott's Thron, last|
 C2 D2 E2 F2 | G8 | F8 |] %17
w: uns von Her- tzen|sin-|gen.|
w: uns von Her- tzen|sin-|gen|
V:2
"^1)""^2)" z2 F,2 F,2 E,2 | F,2 B,,2 D,2 F,2 | C,4 F,2 F,2 | B,,2 C,2 G,,2 G,,2 | C,4 F,,4 | %5
w: O Spie- gel|der Drey- fal- tig-|keit, er- leucht|uns al- le in|der Zeit:|
w: Al- ler e-|dle- ste Kö- ni-|gin der Men-|chen und der En-|ge- len,|
 F,,2 F,,2 C,2 A,,2 | B,,2 C,2 F,,4 | F,,2 F,,2 C,2 A,,2 | B,,2 C,2 C,2 A,,2 | F,,2 A,,2 E,2 F,2 | %10
w: E- ya lie- be|Chri- sten- heit,|mit Lob- ge- sän-|gern _ sey be-|reit, mit Frö- lig-|
w: du prei- sest Gott|mit Süs- sig-|keit er- zeig uns|auch dein Mild- tig-|keit, Speisz und Tränck|
 F,2 F,2 F,2 F,2 | F,4 F,4 | F,2 E,2 D,2 C,2 | G,,2 G,,2 C,2 D,2 | E,2 F,2 C,2 A,,2 | B,,4 C,4 | %16
w: keit, mit In- nig-|keit dem|Kin- de- lein in|E- wig- keit last|uns von Her- tzen|sin- *|
w: uns hie in der|Zeit, O|Mut- ter der Barm-|her- zig- keit, last|uns von Her- tzen|sin- *|
 F,,8 |] %17
w: gen|
w: gen.|

